X:1
T:MOONLIGHT
C:Bruce Green
L:1/16
M:4/4
I:linebreak $
K:D
V:1 treble nm="Fiddle" snm="Fiddle"
V:1
|:"D" f2>g2 fedA"G" Bd2e d2B2 |"D" A2(AB) AGFD E2(EF) E2D2 |$ f2>g2 fedA"G" Bd2e d2B2 | %3
"D" A2(AB) AGFE EFE2"D" D4 ::$"D" D2(DE) FGAc"G" d2(cd) ecAc | %5
"D" d2d(A B)AFE"A" D(FED) B,2(A,B,) |$"D" D2(DE) FGAc"G" d2(cd) ecAc | %7
"D" d2d(A B)AFE EFE2"D" D4 ::$"D" D4 [FA]4"G" [GB]2>A2 B2B2 |"D" A2(AB) AGFD E2(EF) E2D2 |$ %10
 D4 [FA]4 [GB]2A B2B2 | A2(AB) AGFE EFE2 D4 :| %12
